X: 1564
T: Jack and Marie's Waltz
B: australian traditional tunes wiki
M:3/4
L:1/8
R: Waltz
Q: 1/4=100
K:G
V:1 
D2|"G"B2G2"C"E2|"G"D4D2|B2G2"C"E2|"G"D4D2|"D7"c2A2F2|"C"E3F E2|"D7"D2e2e2|e2d2c2|
"G"B2G2"C"E2|"G"D4D2|B2G2"C"E2|D4D2|"D7"c2A2F2|"C"E4F2|"G"G3A G2|G4DG|
"G"B2B2A2|B2B2B2|B2e3d|d4c2|"D7"A2A2G2|A2A2A2|A2e3d|d4c2|
"G"B2B2B2|B2B2B2|B2e3d|d4c2|"D7"e2d2c2|B4A2|"G"G3AG2|G4|
% abcbook-tune_id 6342d53ae7db92c5157b921a


% abcbook-boost 0
% abcbook-tablature 
% abcbook-transpose 
% abcbook-lastupdated 1665324371282
% abcbook-soundfonts 
% abcbook-repeats 1
% NFF Book 2022
% Bush Traditions recording played by Ray Mulligan

